src/s60installs/qt.svg

<?xml version="1.0" encoding="UTF-8" standalone="no"?>
<!DOCTYPE svg PUBLIC "-//W3C//DTD SVG 1.1 Tiny//EN" "http://www.w3.org/Graphics/SVG/1.1/DTD/svg11-tiny.dtd">
<svg xmlns="http://www.w3.org/2000/svg" baseProfile="tiny" height="146.3063" version="1.0" viewBox="0 0 122 146" width="121.60006">
<g transform="translate(-376.34283,-407.78046)">
<g transform="matrix(0.697424,0,0,0.697424,376.34283,407.78046)">
<path d="M 43.086,0.358597 C 40.9414,0.00358582 38.8399,-0.0824127 36.8086,0.0775909 L 36.8047,0.0735931 C 36.8047,0.0735931 22.9219,1.01859 22.2891,1.0696 C 9.6211,2.08159 0,12.5036 0,26.8896 L 0,196.554 L 14.1914,209.781 L 156.789,185.816 C 166.606,184.113 174.356,172.538 174.356,160.038 L 174.356,21.8786 L 43.086,0.358597 z" style="fill:#006225;fill-rule:evenodd;stroke:none"/>
<path d="M 174.356,160.042 C 174.356,172.538 166.606,184.113 156.789,185.816 L 14.1914,209.781 L 14.1914,25.9916 C 14.1914,9.2726 27.5313,-2.20741 43.086,0.358597 L 174.356,21.8786 L 174.356,160.042 z" style="fill:#80c342;fill-rule:evenodd;stroke:none"/>
<path d="M 130.422,45.9136 L 141.938,47.1516 L 141.938,67.3626 L 154.899,68.2766 L 154.899,80.9566 L 141.938,80.3586 L 141.938,126.691 C 141.938,130.723 142.383,133.316 143.278,134.48 C 144.078,135.547 145.324,136.074 146.988,136.074 C 147.149,136.074 147.317,136.07 147.485,136.058 C 150.035,135.91 152.805,135.125 155.828,133.75 L 155.828,145.398 C 150.692,147.656 145.653,148.996 140.703,149.418 C 139.985,149.473 139.293,149.504 138.625,149.504 C 134.145,149.504 130.719,148.203 128.379,145.57 C 125.649,142.519 124.289,137.621 124.289,130.898 L 124.289,79.5426 L 118.063,79.2576 L 118.063,65.6716 L 125.649,66.2186 L 130.422,45.9136 z" style="fill:#ffffff;fill-rule:evenodd;stroke:none"/>
<path d="M 154.899,80.9566 L 141.938,80.3586 L 141.938,80.6366 L 148.883,80.9566 L 154.899,80.9566 z" style="fill:#006225;fill-rule:evenodd;stroke:none"/>
<path d="M 144.637,135.598 C 145.297,135.926 146.067,136.074 146.988,136.074 C 147.149,136.074 147.317,136.07 147.485,136.058 C 150.035,135.91 152.805,135.125 155.828,133.75 L 149.813,133.75 C 147.992,134.582 146.281,135.207 144.637,135.598 z" style="fill:#006225;fill-rule:evenodd;stroke:none"/>
<path d="M 128.379,145.57 C 125.649,142.519 124.289,137.621 124.289,130.898 L 124.289,79.5426 L 118.063,79.2576 L 118.063,65.6716 L 112.047,65.6716 L 112.047,68.7066 C 112.918,71.9796 113.602,75.5266 114.11,79.3506 L 118.274,79.5426 L 118.274,130.898 C 118.274,137.621 119.641,142.519 122.364,145.57 C 124.707,148.203 128.129,149.504 132.61,149.504 L 138.625,149.504 C 134.145,149.504 130.719,148.203 128.379,145.57 z M 130.422,45.9136 L 124.406,45.9136 L 119.738,65.7966 L 125.649,66.2186 L 130.422,45.9136 z" style="fill:#006225;fill-rule:evenodd;stroke:none"/>
<path d="M 91.1528,132.406 C 93.5038,126.355 94.6638,114.492 94.6638,96.7886 C 94.6638,80.8976 93.5158,69.9726 91.1798,63.9756 C 88.8438,57.9486 85.3478,54.6946 80.6598,54.2846 C 80.3008,54.2536 79.9458,54.2336 79.6018,54.2336 C 75.2618,54.2336 71.9218,56.7686 69.5938,61.8586 C 67.0738,67.4016 65.8008,78.8976 65.8008,96.2966 C 65.8008,113.113 67.0388,125.047 69.5348,132.051 C 71.8908,138.723 75.4138,142.027 80.0388,142.027 C 80.2458,142.027 80.4488,142.019 80.6598,142.008 C 85.2928,141.715 88.7808,138.512 91.1528,132.406 M 109.129,136.156 C 105.012,145.863 98.7348,152.214 90.1408,155.156 C 91.0078,159.605 92.3168,162.597 94.0628,164.175 C 95.4138,165.386 97.4958,165.996 100.285,165.996 C 101.09,165.996 101.953,165.941 102.875,165.839 L 102.875,178.964 L 96.9138,179.746 C 95.1558,179.976 93.4878,180.089 91.9098,180.089 C 86.6918,180.089 82.4648,178.824 79.2888,176.265 C 75.0818,172.886 71.9808,166.371 69.9918,156.73 C 60.8555,154.785 53.7344,148.976 48.8008,139.226 C 43.7969,129.324 41.25,114.836 41.25,95.8866 C 41.25,75.4566 44.7344,60.3786 51.5938,50.8156 C 57.3828,42.7456 65.4568,38.7766 75.6168,38.7766 C 77.2458,38.7766 78.9258,38.8786 80.6598,39.0816 C 92.6138,40.4566 101.278,46.0976 106.918,55.8706 C 112.453,65.4326 115.172,79.1366 115.172,97.1326 C 115.172,113.617 113.172,126.582 109.129,136.156 z" style="fill:#ffffff;fill-rule:evenodd;stroke:none"/>
<path d="M 100.281,165.996 C 101.09,165.996 101.953,165.941 102.871,165.839 L 98.0348,165.839 C 98.7108,165.945 99.4878,165.996 100.281,165.996 z" style="fill:#006225;fill-rule:evenodd;stroke:none"/>
<path d="M 84.8518,63.9756 C 87.1878,69.9726 88.3358,80.8976 88.3358,96.7886 C 88.3358,114.492 87.1758,126.355 84.8238,132.406 C 82.9298,137.285 80.2968,140.308 76.9608,141.476 C 77.9258,141.844 78.9528,142.027 80.0388,142.027 C 80.2458,142.027 80.4488,142.019 80.6598,142.008 C 85.2928,141.715 88.7808,138.512 91.1528,132.406 C 93.5038,126.355 94.6638,114.492 94.6638,96.7886 C 94.6638,80.8976 93.5158,69.9726 91.1798,63.9756 C 88.8438,57.9486 85.3478,54.6946 80.6598,54.2846 C 80.3008,54.2536 79.9458,54.2336 79.6018,54.2336 C 78.5118,54.2336 77.4848,54.3936 76.5198,54.7146 L 76.5198,54.7146 L 76.5158,54.7146 C 80.1168,55.8356 82.8948,58.9296 84.8518,63.9756 z M 82.5078,178.253 C 82.3948,178.203 82.2808,178.148 82.1718,178.093 C 82.1598,178.089 82.1488,178.081 82.1368,178.078 C 82.0348,178.027 81.9298,177.972 81.8278,177.921 C 81.8088,177.91 81.7888,177.902 81.7698,177.89 C 81.6798,177.839 81.5858,177.792 81.4918,177.742 C 81.4648,177.726 81.4378,177.706 81.4058,177.691 C 81.3238,177.648 81.2418,177.601 81.1638,177.554 C 81.1248,177.531 81.0858,177.507 81.0508,177.484 C 80.9808,177.445 80.9058,177.402 80.8358,177.359 C 80.7888,177.328 80.7418,177.3 80.6958,177.269 C 80.6368,177.23 80.5778,177.195 80.5198,177.156 C 80.4608,177.117 80.4058,177.081 80.3518,177.042 C 80.3008,177.011 80.2498,176.976 80.2028,176.945 C 80.1368,176.898 80.0708,176.851 80.0078,176.808 C 79.9688,176.781 79.9298,176.753 79.8948,176.726 C 79.8168,176.671 79.7418,176.613 79.6638,176.554 C 79.6408,176.538 79.6138,176.519 79.5858,176.499 C 79.4878,176.421 79.3868,176.343 79.2888,176.265 C 75.0818,172.886 71.9808,166.371 69.9918,156.73 C 60.8555,154.785 53.7344,148.976 48.8008,139.226 C 43.7969,129.324 41.25,114.836 41.25,95.8866 C 41.25,75.4566 44.7344,60.3786 51.5938,50.8156 C 57.3828,42.7456 65.4568,38.7766 75.6168,38.7766 C 75.6528,38.7766 69.2658,38.7766 69.2658,38.7766 L 69.2658,38.7766 C 59.1172,38.7846 51.0508,42.7536 45.2656,50.8156 C 38.4102,60.3786 34.9219,75.4566 34.9219,95.8866 C 34.9219,114.836 37.4688,129.324 42.4727,139.226 C 47.4063,148.976 54.5274,154.785 63.6638,156.73 C 65.6528,166.371 68.7538,172.886 72.9608,176.265 C 76.1368,178.824 80.3638,180.089 85.5858,180.089 C 85.6838,180.089 85.7848,180.089 85.8828,180.085 L 91.4218,180.085 C 88.0158,180.035 85.0388,179.425 82.5158,178.257 C 82.5158,178.257 82.5118,178.257 82.5078,178.253 z" style="fill:#006225;fill-rule:evenodd;stroke:none"/>
</g>
</g>
</svg>

<?xml version="1.0" encoding="UTF-8" standalone="no"?>
<svg
   xmlns:dc="http://purl.org/dc/elements/1.1/"
   xmlns:cc="http://creativecommons.org/ns#"
   xmlns:rdf="http://www.w3.org/1999/02/22-rdf-syntax-ns#"
   xmlns:svg="http://www.w3.org/2000/svg"
   xmlns="http://www.w3.org/2000/svg"
   xmlns:sodipodi="http://sodipodi.sourceforge.net/DTD/sodipodi-0.dtd"
   xmlns:inkscape="http://www.inkscape.org/namespaces/inkscape"
   height="44px"
   version="1.1"
   viewBox="0 0 44 44"
   width="44px"
   x="0px"
   y="0px"
   id="svg2"
   inkscape:version="0.47 r22583"
   sodipodi:docname="qt.svg">
  <metadata
     id="metadata18">
    <rdf:RDF>
      <cc:Work
         rdf:about="">
        <dc:format>image/svg+xml</dc:format>
        <dc:type
           rdf:resource="http://purl.org/dc/dcmitype/StillImage" />
      </cc:Work>
    </rdf:RDF>
  </metadata>
  <defs
     id="defs16">
    <inkscape:perspective
       sodipodi:type="inkscape:persp3d"
       inkscape:vp_x="0 : 22 : 1"
       inkscape:vp_y="0 : 1000 : 0"
       inkscape:vp_z="44 : 22 : 1"
       inkscape:persp3d-origin="22 : 14.666667 : 1"
       id="perspective2836" />
  </defs>
  <sodipodi:namedview
     pagecolor="#ffffff"
     bordercolor="#666666"
     borderopacity="1"
     objecttolerance="10"
     gridtolerance="10"
     guidetolerance="10"
     inkscape:pageopacity="0"
     inkscape:pageshadow="2"
     inkscape:window-width="1920"
     inkscape:window-height="1020"
     id="namedview14"
     showgrid="false"
     inkscape:zoom="21.454545"
     inkscape:cx="49.412871"
     inkscape:cy="21.894358"
     inkscape:window-x="-4"
     inkscape:window-y="-4"
     inkscape:window-maximized="1"
     inkscape:current-layer="g3" />
  <g
     transform="matrix(0.18308778,0,0,0.18308778,6.6100946,3.2385199)"
     id="g3">
    <path
       d="M 43.09,0.3586 C 40.94,0.0036 38.84,-0.0824 36.81,0.0776 31.968136,0.39505671 27.122677,0.73638425 22.28,1.0696 9.62,2.0816 0,12.4996 0,26.8896 l 0,169.7 14.19,13.2 28.87,-209.42 0.03,-0.011 z"
       style="fill:#006225"
       id="path5"
       sodipodi:nodetypes="cccccccc" />
    <path
       d="m 174.4,160 c 0,12.5 -7.75,24.07 -17.57,25.77 L 14.23,209.73 V 25.93 C 14.23,9.21 27.57,-2.27 43.12,0.3 l 131.3,21.52 v 138.2 z"
       style="fill:#80c342"
       id="path7" />
    <path
       d="m 154.9,80.96 -12.96,-0.598 0,0.278 6.945,0.32 6.016,0 z"
       style="fill:#006225"
       id="path11" />
    <path
       d="m 144.6,135.6 c 0.66,0.328 1.43,0.476 2.351,0.476 0.161,0 0.329,-0.004 0.497,-0.016 2.55,-0.148 5.32,-0.933 8.343,-2.308 h -6.015 c -1.821,0.832 -3.532,1.457 -5.176,1.848 z"
       style="fill:#006225"
       id="path13" />
    <path
       id="path17"
       style="fill:#ffffff"
       d="m 91.15,132.4 c 2.351,-6.051 3.511,-17.91 3.511,-35.62 0,-15.89 -1.148,-26.82 -3.484,-32.81 -2.336,-6.027 -5.832,-9.281 -10.52,-9.691 -0.359,-0.031 -0.714,-0.051 -1.058,-0.051 -4.34,0 -7.68,2.535 -10.01,7.625 -2.52,5.543 -3.793,17.04 -3.793,34.44 0,16.82 1.238,28.75 3.734,35.75 2.356,6.672 5.879,9.976 10.5,9.976 0.207,0 0.41,-0.008 0.621,-0.019 4.633,-0.293 8.121,-3.496 10.49,-9.602 m 17.98,3.75 c -4.117,9.707 -10.39,16.06 -18.99,19 0.867,4.449 2.176,7.441 3.922,9.019 1.351,1.211 3.433,1.821 6.222,1.821 0.805,0 1.668,-0.055 2.59,-0.157 v 13.12 l -5.961,0.782 c -1.758,0.23 -3.426,0.343 -5.004,0.343 -5.218,0 -9.445,-1.265 -12.62,-3.824 -4.207,-3.379 -7.308,-9.894 -9.297,-19.54 -9.136,-1.945 -16.26,-7.754 -21.19,-17.5 -5.004,-9.902 -7.551,-24.39 -7.551,-43.34 0,-20.43 3.484,-35.51 10.34,-45.07 5.789,-8.07 13.86,-12.04 24.02,-12.04 1.629,0 3.309,0.102 5.043,0.305 11.95,1.375 20.62,7.016 26.26,16.79 5.535,9.562 8.254,23.27 8.254,41.26 0,16.48 -2,29.45 -6.043,39.02 z M 130.4,45.91 l 11.52,1.238 0,20.21 12.96,0.914 0,12.68 -12.96,-0.598 0,46.33 c 0,4.032 0.445,6.625 1.34,7.789 0.8,1.067 2.046,1.594 3.71,1.594 0.161,0 0.329,-0.004 0.497,-0.016 2.55,-0.148 5.32,-0.933 8.343,-2.308 v 11.65 c -5.136,2.258 -10.18,3.598 -15.12,4.02 -0.718,0.055 -1.41,0.086 -2.078,0.086 -4.48,0 -7.906,-1.301 -10.25,-3.934 -2.73,-3.051 -4.09,-7.949 -4.09,-14.67 V 79.535 L 118.046,79.25 V 65.66 l 7.586,0.547 4.773,-20.3 z" />
    <path
       d="m 100.3,166 c 0.809,0 1.672,-0.055 2.59,-0.157 H 98.054 C 98.73,165.949 99.507,166 100.3,166 z"
       style="fill:#006225"
       id="path19" />
    <path
       id="path21"
       style="fill:#006225"
       d="m 84.85,63.98 c 2.336,5.997 3.484,16.92 3.484,32.81 0,17.7 -1.16,29.57 -3.512,35.62 -1.894,4.879 -4.527,7.902 -7.863,9.07 0.965,0.368 1.992,0.551 3.078,0.551 0.207,0 0.41,-0.008 0.621,-0.019 4.633,-0.293 8.121,-3.496 10.49,-9.602 2.351,-6.051 3.511,-17.91 3.511,-35.62 0,-15.89 -1.148,-26.82 -3.484,-32.81 -2.336,-6.027 -5.832,-9.281 -10.52,-9.691 -0.359,-0.031 -0.714,-0.051 -1.058,-0.051 -1.09,0 -2.117,0.16 -3.082,0.481 h -0.004 c 3.601,1.121 6.379,4.215 8.336,9.261 z m -2.344,114.3 c -0.113,-0.05 -0.227,-0.105 -0.336,-0.16 -0.012,-0.004 -0.023,-0.012 -0.035,-0.015 -0.102,-0.051 -0.207,-0.106 -0.309,-0.157 -0.019,-0.011 -0.039,-0.019 -0.058,-0.031 -0.09,-0.051 -0.184,-0.098 -0.278,-0.148 -0.027,-0.016 -0.054,-0.036 -0.086,-0.051 -0.082,-0.043 -0.164,-0.09 -0.242,-0.137 -0.039,-0.023 -0.078,-0.047 -0.113,-0.07 -0.07,-0.039 -0.145,-0.082 -0.215,-0.125 -0.047,-0.031 -0.094,-0.059 -0.14,-0.09 -0.059,-0.039 -0.118,-0.074 -0.176,-0.113 -0.059,-0.039 -0.114,-0.075 -0.168,-0.114 -0.051,-0.031 -0.102,-0.066 -0.149,-0.097 -0.066,-0.047 -0.132,-0.094 -0.195,-0.137 -0.039,-0.027 -0.078,-0.055 -0.113,-0.082 -0.078,-0.055 -0.153,-0.113 -0.231,-0.172 -0.023,-0.016 -0.05,-0.035 -0.078,-0.055 -0.098,-0.078 -0.199,-0.156 -0.297,-0.234 -4.207,-3.379 -7.308,-9.894 -9.297,-19.54 -9.136,-1.945 -16.26,-7.754 -21.19,-17.5 -5.004,-9.902 -7.551,-24.39 -7.551,-43.34 0,-20.43 3.484,-35.51 10.34,-45.07 5.789,-8.07 13.86,-12.04 24.02,-12.04 h -6.351 c -10.15,0.008 -18.22,3.977 -24,12.04 -6.855,9.563 -10.34,24.64 -10.34,45.07 0,18.95 2.547,33.44 7.551,43.34 4.934,9.75 12.05,15.56 21.19,17.5 1.989,9.641 5.09,16.16 9.297,19.54 3.176,2.559 7.403,3.824 12.62,3.824 0.098,0 0.199,0 0.297,-0.004 h 5.539 c -3.406,-0.05 -6.383,-0.66 -8.906,-1.828 L 82.498,178.28 z M 128.4,145.6 c -2.73,-3.051 -4.09,-7.949 -4.09,-14.67 V 79.57 l -6.226,-0.285 v -13.59 h -6.016 v 3.035 c 0.871,3.273 1.555,6.82 2.063,10.64 l 4.164,0.192 v 51.36 c 0,6.723 1.367,11.62 4.09,14.67 2.343,2.633 5.765,3.934 10.25,3.934 h 6.015 c -4.48,0 -7.906,-1.301 -10.25,-3.934 z m 2.043,-99.66 -6.016,0 -4.668,19.88 5.911,0.422 4.773,-20.3 z" />
  </g>
</svg>
